!!!OTL: ALLGEMACH AUS DAEMMERUNG UND NACHT
!!!ARE: Europa, Mitteleuropa, Deutschland
!!!SCT: F0985
!!!YEM: Copyright 1995, estate of Helmut Schaffrath.
**kern
*ICvox
*Ivox
*M4/4
*k[b-e-a-]
*E-:
{8.g
16a-
=1
4.b-
8cc
8b-
8a-
12g
12a-
12f
=2
2.e-}
{8e-
8e-
=3
4.cc
8b-
8a-
8g
8a-
16cc
16b-
=4
2g
4r}
{8g
8g
=5
4.ee-
8dd
8cc
8dd
8ee-
8ff
=6
8.ff
16b-
4b-
4r}
{12b-
12cc
12dd
=7
4.ee-
8cc
8b-
8a-
12g
12a-
12f
=8
8.f
16e-
4e-
4r}
==
!!!AGN: Natur - Lied
!!!ONB: ESAC (Essen Associative Code) Database: FINK
!!!AMT: simple quadruple
!!!AIN: vox
!!!EED: Helmut Schaffrath
!!!EEV: 1.0
*-
